X:212
T:Four Up
M:4/4
L:1/8
K:Em
E2 EF G2 GA | BA GB-BA GB | AF AB AG FA | G2 F2 EFGF |
E2 EF G2 GA | BA GB-BA GB | AF AB AG FA | G2 F2 E4 :||
cc cc-cB Ac | B2 Bc BA G2 | A2 A2 AG F2 | G2 A2 B4 |
cc cc-cB Ac | B2 Bc BA G2 | AA A2 AG F2 | EFGF E4 :|]
